images/roofs-steep/flat.svg

<svg width="120" height="120" xmlns="http://www.w3.org/2000/svg"><g fill="none" fill-rule="evenodd"><path fill="#F6F6F6" fill-rule="nonzero" d="M18.48 69.33h83.04v42.02H18.48z"/><path fill="#DCDCDC" fill-rule="nonzero" d="M50 76.76h20v34.6H50z"/><path stroke="#DCDCDC" stroke-width="2" stroke-linecap="round" d="M10.85 111.35h98.3"/><path fill="#DCDCDC" fill-rule="nonzero" d="M77.81 77.42h16.76v19.37H77.81z"/><path stroke="#F6F6F6" stroke-width="3" stroke-linecap="square" d="M86.19 77.42v19.37M94.57 87.1H77.81"/><path fill="#DCDCDC" fill-rule="nonzero" d="M25.43 77.42h16.76v19.37H25.43z"/><path stroke="#F6F6F6" stroke-width="3" stroke-linecap="square" d="M33.81 77.42v19.37M42.19 87.1H25.43"/><path fill="#FFF" fill-rule="nonzero" d="M16.87 65.17h87.36v4.37H16.87z"/><path fill="#C5E2E6" fill-rule="nonzero" d="M13.3 59.53h94.51v6.3H13.3z"/><path stroke="#6EB7C2" stroke-width="1.5" stroke-linecap="round" stroke-linejoin="round" d="M11.84 59.53h97.26"/></g></svg>

<svg width="120" height="120" viewBox="0 0 120 120" fill="none" xmlns="http://www.w3.org/2000/svg">
<path d="M18.48 69.33H101.52V111.35H18.48V69.33Z" fill="#F5F5F5"/>
<path d="M50 76.76H70V111.36H50V76.76Z" fill="#E0E0E0"/>
<path d="M10.85 111.35H109.15" stroke="#E0E0E0" stroke-width="2" stroke-linecap="round"/>
<path d="M77.81 77.42H94.57V96.79H77.81V77.42Z" fill="#E0E0E0"/>
<path d="M86.19 77.42V96.79M94.57 87.1H77.81" stroke="#F5F5F5" stroke-width="3" stroke-linecap="square"/>
<path d="M25.43 77.42H42.19V96.79H25.43V77.42Z" fill="#E0E0E0"/>
<path d="M33.81 77.42V96.79M42.19 87.1H25.43" stroke="#F5F5F5" stroke-width="3" stroke-linecap="square"/>
<path d="M16.87 65.17H104.23V69.54H16.87V65.17Z" fill="white"/>
<path d="M13.3 59.53H107.81V65.83H13.3V59.53Z" fill="#BBCAE8"/>
<path d="M11.84 59.53H109.1" stroke="#1B4EB2" stroke-width="1.5" stroke-linecap="round" stroke-linejoin="round"/>
</svg>
